X: 27937
T: Mountain Top, The
R: reel
M: 4/4
K: Gmajor
dc|:BGAG EGDE|G2B/c/d edgd|BGAG EGD2|B/c/dAc BGGA:|
Bd~d2 edBA|B/c/def gfed|Bd~d2 Bdgd|BBAc BGGA|
Bd~d2 edBA|B/c/def|g2ga|bgaf gfed|e/f/g fa|ge|

